X:1
T:East Tennessee Blues
Z:East Tennessee Blues
L:1/8
M:C|
I:linebreak $
K:C
V:1 treble
V:1
 ef |"C" gage gage | gage aged | "F"cdcA cdcA | cdcA dcAc |$
 "C"GEGA cAcd | edef g2 e2 |1  "D"d^cde ^fe f2 | "G"g4 g2 :|2 "G"d^cd(g g)e d2 | "C"c3 d c4 |:$
 "C"e4 e2 [de]2 | [ce]3 [de] [ce]4 | "F"A4 A2 [GA]2 |  [FA]3 [GA] [FA]4 |$
 "C"GEGA cAcd | edef g2 e2 |1 "D"d^cde ^fe f2 | "G"g3 a g4 :|2 "G"d^cdg- ge d2 | "C"c4 c2 |]
